svg/remix.svg

<svg viewBox="0 0 20 20" xmlns="http://www.w3.org/2000/svg">
<rect width="100%" height="100%" fill="#212121"/>
<path d="M15.4167 16.5C15.4167 15.7314 15.4167 15.0273 15.2998 13.5253C15.1551 12.0164 14.3694 11.2515 13.0256 10.9828C14.6175 10.7761 15.796 9.53588 15.796 7.63417C15.796 5.09166 14.1213 3.5 10.7514 3.5H4.5V6.14975H10.1312C11.6197 6.14975 12.364 6.78859 12.364 7.8428C12.364 9.04171 11.6197 9.49454 10.1312 9.49454H4.5V12.2024H9.9658C11.1442 12.2024 11.7851 12.5331 11.8885 14.0215C11.9667 15.0379 11.9569 15.5413 11.9475 16.024L11.9475 16.0261C11.9445 16.1807 11.9415 16.3333 11.9415 16.5L15.4167 16.5Z" fill="white"/>
<path d="M4.5 14.4814V16.5H8.92159V15.2081C8.92159 14.9366 8.78832 14.4814 8.17455 14.4814H4.5Z" fill="white"/>
</svg>

<svg xmlns="http://www.w3.org/2000/svg" viewBox="0 0 20 20">
  <rect width="100%" height="100%" fill="#212121"/>
  <path fill="#fff" d="M15.42 16.5c0-.77 0-1.47-.12-2.97-.14-1.51-.93-2.28-2.27-2.55 1.59-.2 2.77-1.44 2.77-3.35 0-2.54-1.68-4.13-5.05-4.13H4.5v2.65h5.63c1.49 0 2.23.64 2.23 1.7 0 1.2-.74 1.64-2.23 1.64H4.5v2.71h5.47c1.17 0 1.82.33 1.92 1.82.08 1.02.07 1.52.06 2v.48h3.47Z"/>
  <path fill="#fff" d="M4.5 14.48v2.02h4.42v-1.3c0-.26-.13-.72-.75-.72H4.5Z"/>
</svg>
